src/icons/sql-lite.svg

<svg width="16" height="16" viewBox="0 0 16 16" fill="none" xmlns="http://www.w3.org/2000/svg">
<path d="M8.356 7.463L8.017 8.535C7.837 9.201 7.852 9.41 7.944 9.565C7.966 9.603 8.028 9.728 8.114 10.061C8.24 10.543 8.35 11.27 8.353 11.305C8.335 11.749 8.344 12.22 8.38 12.671H3.918C3.67487 12.6705 3.44183 12.5737 3.26981 12.4019C3.0978 12.2301 3.00079 11.9971 3 11.754V3.45C3.00079 3.20687 3.0978 2.97393 3.26981 2.8021C3.44183 2.63028 3.67487 2.53353 3.918 2.533H10.785C9.733 3.648 8.691 5.766 8.355 7.463M13.202 2.261C14.461 3.384 13.211 5.951 12.064 7.757C11.23 8.025 10.258 8.617 10.258 8.617C10.258 8.617 10.338 8.574 10.638 8.447C10.842 8.362 11.45 8.218 11.82 8.134C11.202 9.064 10.674 9.716 10.674 9.716C10.674 9.716 9.596 10.154 9.263 11.173C9.456 10.086 9.777 8.953 10.229 7.743C10.633 6.665 11.982 3.751 12.979 2.85C11.885 3.722 10.69 5.547 9.829 7.822C9.319 9.329 9.043 10.775 8.998 11.974C8.968 12.759 9.036 13.439 9.203 13.958L9.127 14C8.963 13.575 8.813 12.828 8.849 11.298L8.84 11.185C8.84 11.185 8.74 10.515 8.598 9.965C8.534 9.721 8.462 9.501 8.387 9.373C8.347 9.307 8.391 9.035 8.5 8.633C8.684 8.955 8.883 9.303 8.96 9.586C8.96 9.586 8.812 8.829 8.57 8.386C8.62333 8.20667 8.686 8.011 8.758 7.799C8.936 8.111 9.118 8.407 9.191 8.704C9.11415 8.31501 8.99546 7.93547 8.837 7.572C9.14 5.99 10.119 3.92 11.173 2.8C11.736 2.2 12.511 1.663 13.203 2.261" fill="#89DDFF"/>
<path d="M13.2031 2.261C14.4621 3.384 13.2121 5.951 12.0651 7.757C11.2311 8.025 10.2591 8.617 10.2591 8.617C10.2591 8.617 10.3391 8.574 10.6391 8.447C10.8431 8.362 11.4511 8.218 11.8211 8.134C11.2031 9.064 10.6751 9.716 10.6751 9.716C10.6751 9.716 9.59711 10.154 9.26411 11.173C9.45711 10.086 9.77811 8.953 10.2301 7.743C10.6341 6.665 11.9831 3.751 12.9801 2.85C11.8861 3.722 10.6911 5.547 9.83011 7.822C9.32011 9.329 9.04411 10.775 8.99911 11.974C8.96911 12.759 9.03711 13.439 9.20411 13.958L9.12711 14C8.96311 13.575 8.81311 12.828 8.84911 11.298L8.84011 11.185C8.84011 11.185 8.74011 10.515 8.59811 9.965C8.53411 9.721 8.46211 9.501 8.38711 9.373C8.34711 9.307 8.39111 9.035 8.50011 8.633C8.68411 8.955 8.88311 9.303 8.96011 9.586C8.96011 9.586 8.81211 8.829 8.57011 8.386C8.62344 8.20667 8.68611 8.011 8.75811 7.799C8.93611 8.111 9.11811 8.407 9.19111 8.704C9.11426 8.31501 8.99557 7.93547 8.83711 7.572C9.14011 5.99 10.1191 3.92 11.1731 2.8C11.7361 2.2 12.5111 1.663 13.2031 2.261Z" fill="#3965BD"/>
</svg>

<svg xmlns="http://www.w3.org/2000/svg" width="16" height="16" fill="none"><path fill="#89DDFF" d="m8.356 7.463-.339 1.072c-.18.666-.165.875-.073 1.03.022.038.084.163.17.496.126.482.236 1.209.239 1.244-.018.444-.009.915.027 1.366H3.918A.92.92 0 0 1 3 11.754V3.45a.92.92 0 0 1 .918-.917h6.867c-1.052 1.115-2.094 3.233-2.43 4.93m4.847-5.202c1.259 1.123.009 3.69-1.138 5.496-.834.268-1.806.86-1.806.86s.08-.043.38-.17c.204-.085.812-.229 1.182-.313-.618.93-1.146 1.582-1.146 1.582s-1.078.438-1.411 1.457c.193-1.087.514-2.22.966-3.43.404-1.078 1.753-3.992 2.75-4.893-1.094.872-2.289 2.697-3.15 4.972-.51 1.507-.786 2.953-.831 4.152-.03.785.038 1.465.205 1.984L9.127 14c-.164-.425-.314-1.172-.278-2.702l-.009-.113s-.1-.67-.242-1.22c-.064-.244-.136-.464-.211-.592-.04-.066.004-.338.113-.74.184.322.383.67.46.953 0 0-.148-.757-.39-1.2q.08-.269.188-.587c.178.312.36.608.433.905a5.5 5.5 0 0 0-.354-1.132C9.14 5.99 10.119 3.92 11.173 2.8c.563-.6 1.338-1.137 2.03-.539"/><path fill="#3965BD" d="M13.203 2.261c1.259 1.123.009 3.69-1.138 5.496-.834.268-1.806.86-1.806.86s.08-.043.38-.17c.204-.085.812-.229 1.182-.313-.618.93-1.146 1.582-1.146 1.582s-1.078.438-1.411 1.457c.193-1.087.514-2.22.966-3.43.404-1.078 1.753-3.992 2.75-4.893-1.094.872-2.289 2.697-3.15 4.972-.51 1.507-.786 2.953-.831 4.152-.03.785.038 1.465.205 1.984L9.127 14c-.164-.425-.314-1.172-.278-2.702l-.009-.113s-.1-.67-.242-1.22c-.064-.244-.136-.464-.211-.592-.04-.066.004-.338.113-.74.184.322.383.67.46.953 0 0-.148-.757-.39-1.2q.08-.269.188-.587c.178.312.36.608.433.905a5.5 5.5 0 0 0-.354-1.132C9.14 5.99 10.119 3.92 11.173 2.8c.563-.6 1.338-1.137 2.03-.539"/></svg>
